; generated by PrusaSlicer 2.4.2 on 2022-10-16 at 18:05:57 UTC

; 

; external perimeters extrusion width = 0.45mm
; perimeters extrusion width = 0.45mm
; infill extrusion width = 0.45mm
; solid infill extrusion width = 0.45mm
; top infill extrusion width = 0.40mm
; first layer extrusion width = 0.42mm

M107
;TYPE:Custom
G90 ; use absolute coordinates
M83 ; extruder relative mode
M140 S60 ; set final bed temp
M104 S150 ; set temporary nozzle temp to prevent oozing during homing
G4 S10 ; allow partial nozzle warmup
G28 ; home all axis
G1 Z50 F240
G1 X2 Y10 F3000
M104 S200 ; set final nozzle temp
M190 S60 ; wait for bed temp to stabilize
M109 S200 ; wait for nozzle temp to stabilize
G1 Z0.28 F240
G92 E0
G1 Y140 E10 F1500 ; prime the nozzle
G1 X2.3 F5000
G92 E0
G1 Y10 E10 F1200 ; prime the nozzle
G92 E0
G21 ; set units to millimeters
G90 ; use absolute coordinates
M83 ; use relative distances for extrusion
; Filament gcode
M107
;LAYER_CHANGE
;Z:0.2
;HEIGHT:0.2
;BEFORE_LAYER_CHANGE
G92 E0
;0.2


G1 E-6 F3600
G1 Z.2 F9000
;AFTER_LAYER_CHANGE
;0.2
G1 X97.44 Y96.322
G1 E6 F2400
M204 S500
;TYPE:Skirt/Brim
;WIDTH:0.42
G1 F1200
G1 X99.138 Y94.654 E.07463
G1 X100.179 Y93.78 E.04261
G1 X102.117 Y92.398 E.07463
G1 X104.182 Y91.215 E.07463
G1 X106.355 Y90.244 E.07463
G1 X108.614 Y89.494 E.07463
G1 X110.937 Y88.972 E.07463
G1 X113.3 Y88.684 E.07463
G1 X115.679 Y88.633 E.07463
G1 X118.052 Y88.82 E.07463
G1 X120.395 Y89.241 E.07463
G1 X122.684 Y89.894 E.07463
G1 X124.897 Y90.771 E.07463
G1 X127.011 Y91.865 E.07463
G1 X129.006 Y93.163 E.07463
G1 X130.862 Y94.654 E.07463
G1 X132.56 Y96.322 E.07463
G1 X134.083 Y98.151 E.07463
G1 X135.329 Y99.978 E.06936
G1 X136.475 Y102.065 E.07463
G1 X137.407 Y104.255 E.07463
G1 X138.117 Y106.527 E.07463
G1 X138.597 Y108.858 E.07463
G1 X138.842 Y111.226 E.07463
G1 X138.851 Y113.606 E.07463
G1 X138.622 Y115.975 E.07463
G1 X138.159 Y118.31 E.07463
G1 X137.465 Y120.587 E.07463
G1 X136.548 Y122.784 E.07463
G1 X135.417 Y124.878 E.07463
G1 X134.083 Y126.849 E.07463
G1 X132.56 Y128.678 E.07463
G1 X130.862 Y130.346 E.07463
G1 X129.821 Y131.22 E.04261
G1 X127.883 Y132.602 E.07463
G1 X125.818 Y133.785 E.07463
G1 X123.645 Y134.756 E.07463
G1 X121.386 Y135.506 E.07463
G1 X119.063 Y136.028 E.07463
G1 X116.7 Y136.316 E.07463
G1 X114.321 Y136.367 E.07463
G1 X111.948 Y136.18 E.07463
G1 X109.605 Y135.759 E.07463
G1 X107.316 Y135.106 E.07463
G1 X105.103 Y134.229 E.07463
G1 X102.989 Y133.135 E.07463
G1 X100.994 Y131.837 E.07463
G1 X99.138 Y130.346 E.07463
G1 X97.44 Y128.678 E.07463
G1 X95.917 Y126.849 E.07463
G1 X94.671 Y125.022 E.06936
G1 X93.525 Y122.935 E.07463
G1 X92.593 Y120.745 E.07463
G1 X91.883 Y118.473 E.07463
G1 X91.403 Y116.142 E.07463
G1 X91.158 Y113.774 E.07463
G1 X91.149 Y111.394 E.07463
G1 X91.378 Y109.025 E.07463
G1 X91.841 Y106.69 E.07463
G1 X92.535 Y104.413 E.07463
G1 X93.452 Y102.216 E.07463
G1 X94.583 Y100.122 E.07463
G1 X95.917 Y98.151 E.07463
G1 X97.402 Y96.368 E.07275
G1 E-4.2 F3600
;WIPE_START
G1 F7200
G1 X99.138 Y94.654 E-1.15898
G1 X100.027 Y93.908 E-.55102
;WIPE_END
G1 E-.09 F3600
G1 X100.448 Y99.056 F9000
G1 E6 F2400
;TYPE:Perimeter
G1 F1200
G1 X101.166 Y98.317 E.03232
G1 X101.89 Y97.645 E.03097
G1 X102.647 Y97.01 E.03098
G1 X103.434 Y96.413 E.03097
G1 X104.251 Y95.857 E.03098
G1 X105.094 Y95.342 E.03097
G1 X105.961 Y94.869 E.03097
G1 X106.851 Y94.441 E.03097
G1 X107.762 Y94.057 E.03097
G1 X108.69 Y93.719 E.03098
G1 X109.634 Y93.428 E.03097
G1 X110.591 Y93.184 E.03098
G1 X111.56 Y92.988 E.03097
G1 X112.536 Y92.841 E.03097
G1 X113.519 Y92.743 E.03098
G1 X114.506 Y92.693 E.03097
G1 X115.494 Y92.693 E.03097
G1 X116.481 Y92.743 E.03097
G1 X117.464 Y92.841 E.03098
G1 X118.44 Y92.988 E.03097
G1 X119.409 Y93.184 E.03097
G1 X120.366 Y93.428 E.03098
G1 X121.31 Y93.719 E.03097
G1 X122.238 Y94.057 E.03097
G1 X123.149 Y94.441 E.03097
G1 X124.039 Y94.869 E.03097
G1 X124.906 Y95.342 E.03098
G1 X125.749 Y95.857 E.03097
G1 X126.566 Y96.413 E.03098
G1 X127.353 Y97.01 E.03097
G1 X128.11 Y97.645 E.03098
G1 X128.834 Y98.317 E.03097
G1 X129.524 Y99.024 E.03098
G1 X130.177 Y99.765 E.03097
G1 X130.793 Y100.537 E.03098
G1 X131.37 Y101.339 E.03097
G1 X131.906 Y102.169 E.03098
G1 X132.4 Y103.024 E.03097
G1 X132.851 Y103.904 E.03097
G1 X133.257 Y104.804 E.03098
G1 X133.618 Y105.724 E.03097
G1 X133.932 Y106.66 E.03097
G1 X134.2 Y107.611 E.03098
G1 X134.42 Y108.574 E.03097
G1 X134.591 Y109.547 E.03097
G1 X134.714 Y110.527 E.03098
G1 X134.788 Y111.512 E.03097
G1 X134.813 Y112.5 E.03097
G1 X134.788 Y113.488 E.03097
G1 X134.714 Y114.473 E.03097
G1 X134.591 Y115.453 E.03098
G1 X134.42 Y116.426 E.03097
G1 X134.2 Y117.389 E.03097
G1 X133.932 Y118.34 E.03097
G1 X133.618 Y119.276 E.03098
G1 X133.257 Y120.196 E.03097
G1 X132.851 Y121.096 E.03098
G1 X132.4 Y121.976 E.03097
G1 X131.906 Y122.831 E.03097
G1 X131.37 Y123.661 E.03098
G1 X130.793 Y124.463 E.03097
G1 X130.177 Y125.235 E.03098
G1 X129.524 Y125.976 E.03097
G1 X128.834 Y126.683 E.03098
G1 X128.11 Y127.355 E.03097
G1 X127.353 Y127.99 E.03098
G1 X126.566 Y128.587 E.03097
G1 X125.749 Y129.143 E.03098
G1 X124.906 Y129.658 E.03097
G1 X124.039 Y130.131 E.03097
G1 X123.149 Y130.559 E.03097
G1 X122.238 Y130.943 E.03098
G1 X121.31 Y131.281 E.03097
G1 X120.366 Y131.572 E.03097
G1 X119.409 Y131.816 E.03098
G1 X118.44 Y132.012 E.03097
G1 X117.464 Y132.159 E.03097
G1 X116.481 Y132.257 E.03098
G1 X115.494 Y132.307 E.03097
G1 X114.506 Y132.307 E.03097
G1 X113.519 Y132.257 E.03097
G1 X112.536 Y132.159 E.03098
G1 X111.56 Y132.012 E.03097
G1 X110.591 Y131.816 E.03097
G1 X109.634 Y131.572 E.03098
G1 X108.69 Y131.281 E.03097
G1 X107.762 Y130.943 E.03098
G1 X106.851 Y130.559 E.03097
G1 X105.961 Y130.131 E.03097
G1 X105.094 Y129.658 E.03098
G1 X104.251 Y129.143 E.03097
G1 X103.434 Y128.587 E.03098
G1 X102.647 Y127.99 E.03097
G1 X101.89 Y127.355 E.03098
G1 X101.166 Y126.683 E.03097
G1 X100.476 Y125.976 E.03098
G1 X99.823 Y125.235 E.03097
G1 X99.207 Y124.463 E.03098
G1 X98.63 Y123.661 E.03097
G1 X98.094 Y122.831 E.03098
G1 X97.6 Y121.976 E.03097
G1 X97.149 Y121.096 E.03097
G1 X96.743 Y120.196 E.03098
G1 X96.382 Y119.276 E.03097
G1 X96.068 Y118.34 E.03097
G1 X95.8 Y117.389 E.03098
G1 X95.58 Y116.426 E.03097
G1 X95.409 Y115.453 E.03097
G1 X95.286 Y114.473 E.03098
G1 X95.212 Y113.488 E.03097
G1 X95.187 Y112.5 E.03097
G1 X95.212 Y111.512 E.03097
G1 X95.286 Y110.527 E.03097
G1 X95.409 Y109.547 E.03098
G1 X95.58 Y108.574 E.03097
G1 X95.8 Y107.611 E.03097
G1 X96.068 Y106.66 E.03098
G1 X96.382 Y105.724 E.03097
G1 X96.743 Y104.804 E.03097
G1 X97.149 Y103.904 E.03098
G1 X97.6 Y103.024 E.03097
G1 X98.094 Y102.169 E.03097
G1 X98.63 Y101.339 E.03098
G1 X99.207 Y100.537 E.03097
G1 X99.823 Y99.765 E.03098
G1 X100.408 Y99.101 E.02775
G1 X100.165 Y98.807 F9000
;TYPE:External perimeter
G1 F1200
G1 X100.903 Y98.047 E.0332
G1 X101.641 Y97.362 E.03156
G1 X102.412 Y96.715 E.03157
G1 X103.214 Y96.107 E.03156
G1 X104.046 Y95.54 E.03157
G1 X104.905 Y95.015 E.03156
G1 X105.789 Y94.534 E.03156
G1 X106.696 Y94.097 E.03156
G1 X107.624 Y93.706 E.03156
G1 X108.57 Y93.361 E.03156
G1 X109.532 Y93.065 E.03156
G1 X110.507 Y92.816 E.03157
G1 X111.494 Y92.617 E.03156
G1 X112.49 Y92.467 E.03156
G1 X113.491 Y92.367 E.03156
G1 X114.497 Y92.316 E.03156
G1 X115.503 Y92.316 E.03156
G1 X116.509 Y92.367 E.03156
G1 X117.51 Y92.467 E.03156
G1 X118.506 Y92.617 E.03156
G1 X119.493 Y92.816 E.03156
G1 X120.468 Y93.065 E.03157
G1 X121.43 Y93.361 E.03156
G1 X122.376 Y93.706 E.03156
G1 X123.304 Y94.097 E.03156
G1 X124.211 Y94.534 E.03156
G1 X125.095 Y95.015 E.03156
G1 X125.954 Y95.54 E.03156
G1 X126.786 Y96.107 E.03157
G1 X127.588 Y96.715 E.03156
G1 X128.359 Y97.362 E.03157
G1 X129.097 Y98.047 E.03156
G1 X129.8 Y98.767 E.03157
G1 X130.466 Y99.522 E.03156
G1 X131.094 Y100.309 E.03156
G1 X131.682 Y101.127 E.03156
G1 X132.228 Y101.972 E.03157
G1 X132.731 Y102.844 E.03156
G1 X133.19 Y103.74 E.03156
G1 X133.605 Y104.658 E.03157
G1 X133.972 Y105.595 E.03156
G1 X134.293 Y106.549 E.03156
G1 X134.566 Y107.518 E.03157
G1 X134.79 Y108.499 E.03156
G1 X134.964 Y109.491 E.03157
G1 X135.09 Y110.49 E.03157
G1 X135.165 Y111.494 E.03156
G1 X135.19 Y112.5 E.03156
G1 X135.165 Y113.506 E.03156
G1 X135.09 Y114.51 E.03156
G1 X134.964 Y115.509 E.03157
G1 X134.79 Y116.501 E.03156
G1 X134.566 Y117.482 E.03156
G1 X134.293 Y118.451 E.03156
G1 X133.972 Y119.405 E.03157
G1 X133.605 Y120.342 E.03156
G1 X133.19 Y121.26 E.03156
G1 X132.731 Y122.156 E.03156
G1 X132.228 Y123.028 E.03156
G1 X131.682 Y123.873 E.03157
G1 X131.094 Y124.691 E.03156
G1 X130.466 Y125.478 E.03156
G1 X129.8 Y126.233 E.03156
G1 X129.097 Y126.953 E.03157
G1 X128.359 Y127.638 E.03156
G1 X127.588 Y128.285 E.03156
G1 X126.786 Y128.893 E.03156
G1 X125.954 Y129.46 E.03157
G1 X125.095 Y129.985 E.03156
G1 X124.211 Y130.466 E.03156
G1 X123.304 Y130.903 E.03156
G1 X122.376 Y131.294 E.03156
G1 X121.43 Y131.639 E.03156
G1 X120.468 Y131.935 E.03156
G1 X119.493 Y132.184 E.03157
G1 X118.506 Y132.383 E.03156
G1 X117.51 Y132.533 E.03156
G1 X116.509 Y132.633 E.03156
G1 X115.503 Y132.684 E.03156
G1 X114.497 Y132.684 E.03156
G1 X113.491 Y132.633 E.03156
G1 X112.49 Y132.533 E.03156
G1 X111.494 Y132.383 E.03156
G1 X110.507 Y132.184 E.03156
G1 X109.532 Y131.935 E.03156
G1 X108.57 Y131.639 E.03156
G1 X107.624 Y131.294 E.03156
G1 X106.696 Y130.903 E.03156
G1 X105.789 Y130.466 E.03156
G1 X104.905 Y129.985 E.03156
G1 X104.046 Y129.46 E.03156
G1 X103.214 Y128.893 E.03157
G1 X102.412 Y128.285 E.03156
G1 X101.641 Y127.638 E.03157
G1 X100.903 Y126.953 E.03156
G1 X100.2 Y126.233 E.03157
G1 X99.534 Y125.478 E.03156
G1 X98.906 Y124.691 E.03156
G1 X98.318 Y123.873 E.03156
G1 X97.772 Y123.028 E.03157
G1 X97.269 Y122.156 E.03156
G1 X96.81 Y121.26 E.03156
G1 X96.395 Y120.342 E.03157
G1 X96.028 Y119.405 E.03156
G1 X95.707 Y118.451 E.03156
G1 X95.434 Y117.482 E.03156
G1 X95.21 Y116.501 E.03156
G1 X95.036 Y115.509 E.03156
G1 X94.91 Y114.51 E.03157
G1 X94.835 Y113.506 E.03156
G1 X94.81 Y112.5 E.03156
G1 X94.835 Y111.494 E.03156
G1 X94.91 Y110.49 E.03156
G1 X95.036 Y109.491 E.03157
G1 X95.21 Y108.499 E.03156
G1 X95.434 Y107.518 E.03156
G1 X95.707 Y106.549 E.03157
G1 X96.028 Y105.595 E.03156
G1 X96.395 Y104.658 E.03156
G1 X96.81 Y103.74 E.03157
G1 X97.269 Y102.844 E.03156
G1 X97.772 Y101.972 E.03156
G1 X98.318 Y101.127 E.03157
G1 X98.906 Y100.309 E.03156
G1 X99.534 Y99.522 E.03156
G1 X100.125 Y98.852 E.02804
G1 X100.555 Y98.895 F9000
G1 E-4.2 F3600
;WIPE_START
G1 F7200
G1 X100.903 Y98.047 E-.53145
G1 X101.641 Y97.362 E-.47816
G1 X102.412 Y96.715 E-.4782
G1 X102.785 Y96.432 E-.2222
;WIPE_END
G1 E-.09 F3600
G1 X127 Y96.884 F9000
G1 E6 F2400
;TYPE:Solid infill
;WIDTH:0.42209
G1 F1200
G1 X129.316 Y99.216 E.10363
G1 X129.961 Y99.946 E.0307
G1 X130.568 Y100.708 E.0307
G1 X131.243 Y101.663 E.03688
G1 X125.841 Y96.262 E.24084
G1 X124.765 Y95.587 E.04006
G1 X124.469 Y95.425 E.01064
G1 X132.081 Y103.038 E.33943
G1 X132.647 Y104.14 E.03906
G1 X123.366 Y94.859 E.41381
G1 X122.405 Y94.434 E.03315
G1 X133.068 Y105.098 E.47547
G1 X133.401 Y105.967 E.02934
G1 X121.537 Y94.103 E.52899
G1 X120.736 Y93.838 E.02659
G1 X133.67 Y106.772 E.57669
G1 X133.88 Y107.518 E.02444
G1 X119.985 Y93.622 E.61956
G1 X119.27 Y93.445 E.0232
G1 X134.05 Y108.224 E.65898
G1 X134.19 Y108.901 E.02179
G1 X118.598 Y93.309 E.6952
G1 X117.954 Y93.201 E.02058
G1 X134.305 Y109.552 E.72903
G1 X134.384 Y110.167 E.01956
G1 X117.329 Y93.112 E.76044
G1 X116.733 Y93.052 E.01888
G1 X134.449 Y110.768 E.78989
G1 X134.492 Y111.347 E.01833
G1 X116.154 Y93.01 E.81764
G1 X115.59 Y92.981 E.01782
G1 X134.515 Y111.907 E.84382
G1 X134.529 Y112.456 E.01734
G1 X115.049 Y92.976 E.86857
G1 X114.512 Y92.976 E.0169
G1 X134.518 Y112.982 E.89199
G1 X134.503 Y113.503 E.01646
G1 X114.002 Y93.002 E.91412
G1 X113.493 Y93.03 E.01606
G1 X134.466 Y114.002 E.93512
G1 X134.426 Y114.499 E.0157
G1 X113.006 Y93.078 E.95508
G1 X112.521 Y93.129 E.01538
G1 X134.366 Y114.975 E.97404
G1 X134.305 Y115.45 E.01509
G1 X112.055 Y93.2 E.99208
G1 X111.589 Y93.271 E.01484
G1 X134.224 Y115.906 E1.00924
G1 X134.144 Y116.362 E.01459
G1 X111.143 Y93.361 E1.02554
G1 X110.697 Y93.451 E.01435
G1 X134.045 Y116.798 E1.041
G1 X133.945 Y117.235 E.01412
G1 X110.268 Y93.558 E1.0557
G1 X109.841 Y93.667 E.01391
G1 X133.831 Y117.657 E1.06966
G1 X133.713 Y118.076 E.01371
G1 X109.426 Y93.788 E1.08292
G1 X109.016 Y93.914 E.01352
G1 X133.586 Y118.484 E1.09551
G1 X133.451 Y118.886 E.01335
G1 X108.613 Y94.048 E1.10745
G1 X108.22 Y94.191 E.01319
G1 X133.312 Y119.283 E1.11877
G1 X133.16 Y119.668 E.01304
G1 X107.828 Y94.336 E1.1295
G1 X107.451 Y94.495 E.01291
G1 X133.009 Y120.053 E1.13958
G1 X132.844 Y120.424 E.0128
G1 X107.074 Y94.654 E1.14902
G1 X106.708 Y94.824 E.01273
G1 X132.677 Y120.793 E1.15792
G1 X132.503 Y121.155 E.01266
G1 X106.346 Y94.998 E1.16628
G1 X105.988 Y95.177 E.0126
G1 X132.321 Y121.51 E1.17412
G1 X132.138 Y121.863 E.01255
G1 X105.641 Y95.366 E1.18145
G1 X105.294 Y95.555 E.01246
G1 X131.942 Y122.203 E1.18818
G1 X131.746 Y122.543 E.01238
G1 X104.959 Y95.756 E1.19438
G1 X104.626 Y95.959 E.0123
G1 X131.541 Y122.875 E1.2001
G1 X131.331 Y123.2 E.01223
G1 X104.298 Y96.167 E1.20534
G1 X103.979 Y96.385 E.01217
G1 X131.119 Y123.525 E1.21013
G1 X130.895 Y123.837 E.01211
G1 X103.66 Y96.602 E1.21435
G1 X103.352 Y96.83 E.01208
G1 X130.671 Y124.149 E1.21807
G1 X130.439 Y124.454 E.01206
G1 X103.047 Y97.062 E1.22134
G1 X102.746 Y97.296 E.01205
G1 X130.201 Y124.752 E1.22418
G1 X129.963 Y125.05 E.01203
G1 X102.454 Y97.541 E1.22657
G1 X102.162 Y97.786 E.012
G1 X129.712 Y125.335 E1.22837
G1 X129.461 Y125.62 E.01198
G1 X101.88 Y98.04 E1.22974
G1 X101.602 Y98.298 E.01196
G1 X129.204 Y125.899 E1.23068
G1 X128.939 Y126.171 E.01196
G1 X101.326 Y98.558 E1.23119
G1 X101.061 Y98.829 E.01196
G1 X128.674 Y126.442 E1.23119
G1 X128.636 Y126.481 E.0017
G1 X128.398 Y126.702 E.01026
G1 X100.796 Y99.101 E1.23068
G1 X100.539 Y99.38 E.01196
G1 X128.12 Y126.96 E1.22974
G1 X127.838 Y127.214 E.01197
G1 X100.288 Y99.665 E1.22837
G1 X100.037 Y99.95 E.01198
G1 X127.546 Y127.459 E1.22657
G1 X127.254 Y127.704 E.012
G1 X99.799 Y100.248 E1.22418
G1 X99.561 Y100.546 E.01203
G1 X126.953 Y127.938 E1.22134
G1 X126.648 Y128.17 E.01207
G1 X99.329 Y100.851 E1.21807
G1 X99.105 Y101.163 E.01211
G1 X126.34 Y128.398 E1.21435
G1 X126.021 Y128.615 E.01217
G1 X98.881 Y101.475 E1.21013
G1 X98.669 Y101.8 E.01222
G1 X125.702 Y128.833 E1.20534
G1 X125.374 Y129.041 E.01225
G1 X98.459 Y102.125 E1.2001
G1 X98.254 Y102.457 E.01229
G1 X125.041 Y129.244 E1.19438
G1 X124.706 Y129.445 E.01232
G1 X98.058 Y102.797 E1.18818
G1 X97.862 Y103.137 E.01238
G1 X124.359 Y129.634 E1.18145
G1 X124.012 Y129.823 E.01246
G1 X97.679 Y103.49 E1.17412
G1 X97.497 Y103.845 E.01256
G1 X123.654 Y130.002 E1.16628
G1 X123.292 Y130.176 E.01267
G1 X97.323 Y104.207 E1.15792
G1 X97.156 Y104.576 E.01278
G1 X122.926 Y130.346 E1.14902
G1 X122.549 Y130.505 E.01291
G1 X96.991 Y104.947 E1.13958
G1 X96.84 Y105.332 E.01304
G1 X122.172 Y130.664 E1.1295
G1 X121.78 Y130.809 E.01316
G1 X96.688 Y105.717 E1.11877
G1 X96.549 Y106.114 E.01326
G1 X121.387 Y130.952 E1.10745
G1 X120.984 Y131.086 E.01338
G1 X96.414 Y106.516 E1.09551
G1 X96.287 Y106.924 E.0135
G1 X120.574 Y131.212 E1.08292
G1 X120.159 Y131.333 E.01363
G1 X96.169 Y107.343 E1.06966
G1 X96.055 Y107.765 E.01378
G1 X119.732 Y131.442 E1.0557
G1 X119.303 Y131.549 E.01395
G1 X95.955 Y108.202 E1.041
G1 X95.856 Y108.638 E.01413
G1 X118.857 Y131.639 E1.02554
G1 X118.411 Y131.729 E.01435
G1 X95.776 Y109.094 E1.00924
G1 X95.695 Y109.55 E.01459
G1 X117.945 Y131.8 E.99208
G1 X117.479 Y131.871 E.01486
G1 X95.634 Y110.025 E.97404
G1 X95.574 Y110.501 E.01514
G1 X116.994 Y131.922 E.95508
G1 X116.507 Y131.97 E.01545
G1 X95.534 Y110.998 E.93512
G1 X95.497 Y111.497 E.01577
G1 X115.998 Y131.998 E.91412
G1 X115.488 Y132.024 E.01612
G1 X95.482 Y112.018 E.89199
G1 X95.471 Y112.544 E.01657
G1 X114.951 Y132.024 E.86857
G1 X114.41 Y132.019 E.01707
G1 X95.485 Y113.094 E.84382
G1 X95.508 Y113.653 E.01764
G1 X113.846 Y131.99 E.81764
G1 X113.267 Y131.948 E.0183
G1 X95.551 Y114.232 E.78989
G1 X95.616 Y114.833 E.01905
G1 X112.671 Y131.888 E.76044
G1 X112.046 Y131.799 E.01992
G1 X95.695 Y115.448 E.72903
