; generated by PrusaSlicer 2.4.2 on 2022-10-16 at 22:28:43 UTC

; 

; external perimeters extrusion width = 0.45mm
; perimeters extrusion width = 0.45mm
; infill extrusion width = 0.45mm
; solid infill extrusion width = 0.45mm
; top infill extrusion width = 0.40mm
; first layer extrusion width = 0.42mm

M107
;TYPE:Custom
G90 ; use absolute coordinates
M83 ; extruder relative mode
M140 S60 ; set final bed temp
M104 S150 ; set temporary nozzle temp to prevent oozing during homing
G4 S10 ; allow partial nozzle warmup
G28 ; home all axis
G1 Z50 F240
G1 X2 Y10 F3000
M104 S200 ; set final nozzle temp
M190 S60 ; wait for bed temp to stabilize
M109 S200 ; wait for nozzle temp to stabilize
G1 Z0.28 F240
G92 E0
G1 Y140 E10 F1500 ; prime the nozzle
G1 X2.3 F5000
G92 E0
G1 Y10 E10 F1200 ; prime the nozzle
G92 E0
G21 ; set units to millimeters
G90 ; use absolute coordinates
M83 ; use relative distances for extrusion
; Filament gcode
M107
;LAYER_CHANGE
;Z:0.2
;HEIGHT:0.2
;BEFORE_LAYER_CHANGE
G92 E0
;0.2


G1 E-6 F3600
G1 Z.2 F9000
;AFTER_LAYER_CHANGE
;0.2
G1 X82.087 Y79.264
G1 E6 F2400
M204 S500
;TYPE:Skirt/Brim
;WIDTH:0.42
G1 F1200
G1 X83.866 Y77.683 E.07463
G1 X85.794 Y76.287 E.07463
G1 X87.851 Y75.089 E.07463
G1 X90.174 Y74.041 E.0799
G1 X92.433 Y73.291 E.07463
G1 X94.756 Y72.77 E.07463
G1 X96.951 Y72.495 E.06936
G1 X98.247 Y72.427 E.04071
G1 X146.118 Y71.597 E1.50118
G1 X148.324 Y71.763 E.06936
G1 X150.67 Y72.168 E.07463
G1 X151.986 Y72.503 E.04261
G1 X154.083 Y73.208 E.06936
G1 X155.335 Y73.735 E.0426
G1 X157.304 Y74.745 E.06936
G1 X159.266 Y76 E.07303
G1 X160.391 Y76.849 E.0442
G1 X162.05 Y78.313 E.06936
G1 X163.641 Y80.014 E.07303
G1 X164.522 Y81.115 E.04421
G1 X165.768 Y82.942 E.06936
G1 X166.447 Y84.119 E.0426
G1 X167.407 Y86.112 E.06936
G1 X168.229 Y88.346 E.07463
G1 X168.597 Y89.654 E.04261
G1 X169.061 Y91.989 E.07463
G1 X169.289 Y94.358 E.07463
G1 X169.98 Y141.456 E1.47687
G1 X169.878 Y142.811 E.0426
G1 X169.558 Y144.948 E.06776
G1 X168.92 Y147.468 E.0815
G1 X168.182 Y149.499 E.06776
G1 X167.677 Y150.633 E.03893
G1 X167.058 Y151.842 E.0426
G1 X165.904 Y153.73 E.06936
G1 X164.474 Y155.632 E.07463
G1 X162.74 Y157.5 E.0799
G1 X160.95 Y159.069 E.07463
G1 X159.272 Y160.28 E.06487
G1 X158.14 Y160.985 E.04181
G1 X156.026 Y162.078 E.07463
G1 X153.654 Y163.009 E.0799
G1 X151.663 Y163.573 E.06487
G1 X150.358 Y163.848 E.04181
G1 X147.998 Y164.153 E.07463
G1 X146.649 Y164.22 E.04232
G1 X101.866 Y164.34 E1.40416
G1 X99.646 Y164.285 E.06964
G1 X97.117 Y163.968 E.0799
G1 X95.01 Y163.488 E.06776
G1 X93.822 Y163.129 E.03893
G1 X91.449 Y162.198 E.0799
G1 X89.481 Y161.189 E.06936
G1 X88.321 Y160.48 E.0426
G1 X86.394 Y159.084 E.07463
G1 X85.484 Y158.315 E.03733
G1 X83.901 Y156.771 E.06936
G1 X82.364 Y154.953 E.07463
G1 X81.017 Y152.991 E.07463
G1 X79.871 Y150.904 E.07463
G1 X78.881 Y148.556 E.0799
G1 X78.187 Y146.279 E.07463
G1 X77.774 Y144.252 E.06487
G1 X77.597 Y142.93 E.04181
G1 X74.943 Y96.213 E1.46714
G1 X74.977 Y95.023 E.03733
G1 X75.197 Y92.822 E.06936
G1 X75.433 Y91.484 E.0426
G1 X75.979 Y89.34 E.06936
G1 X76.411 Y88.052 E.0426
G1 X77.271 Y86.014 E.06936
G1 X77.891 Y84.805 E.0426
G1 X79.044 Y82.917 E.06936
G1 X80.474 Y81.015 E.07463
G1 X82.047 Y79.308 E.07275
G1 E-4.2 F3600
;WIPE_START
G1 F7200
G1 X83.866 Y77.683 E-1.15899
G1 X84.806 Y77.003 E-.55101
;WIPE_END
G1 E-.09 F3600
G1 X126.239 Y90.575 F9000
G1 E6 F2400
;TYPE:Perimeter
G1 F1200
G1 X126.506 Y89.624 E.03098
G1 X126.821 Y88.688 E.03097
G1 X127.182 Y87.768 E.03097
G1 X127.588 Y86.868 E.03098
G1 X128.039 Y85.988 E.03097
G1 X128.533 Y85.133 E.03097
G1 X129.069 Y84.303 E.03098
G1 X129.645 Y83.501 E.03097
G1 X130.261 Y82.729 E.03098
G1 X130.915 Y81.988 E.03097
G1 X131.605 Y81.281 E.03098
G1 X132.329 Y80.609 E.03097
G1 X133.086 Y79.974 E.03098
G1 X133.873 Y79.377 E.03097
G1 X134.689 Y78.821 E.03098
G1 X135.532 Y78.306 E.03097
G1 X136.4 Y77.833 E.03097
G1 X137.29 Y77.405 E.03097
G1 X138.2 Y77.021 E.03097
G1 X139.129 Y76.683 E.03098
G1 X140.073 Y76.392 E.03097
G1 X141.03 Y76.148 E.03098
G1 X141.998 Y75.952 E.03097
G1 X142.975 Y75.805 E.03097
G1 X143.958 Y75.707 E.03098
G1 X144.945 Y75.657 E.03097
G1 X145.933 Y75.657 E.03097
G1 X146.919 Y75.707 E.03097
G1 X147.902 Y75.805 E.03098
G1 X148.879 Y75.952 E.03097
G1 X149.847 Y76.148 E.03097
G1 X150.805 Y76.392 E.03098
G1 X151.749 Y76.683 E.03097
G1 X152.677 Y77.021 E.03097
G1 X153.587 Y77.405 E.03097
G1 X154.478 Y77.833 E.03097
G1 X155.345 Y78.306 E.03098
G1 X156.188 Y78.821 E.03097
G1 X157.004 Y79.377 E.03098
G1 X157.792 Y79.974 E.03097
G1 X158.549 Y80.609 E.03098
G1 X159.273 Y81.281 E.03097
G1 X159.963 Y81.988 E.03098
G1 X160.616 Y82.729 E.03097
G1 X161.232 Y83.501 E.03098
G1 X161.809 Y84.303 E.03097
G1 X162.345 Y85.133 E.03098
G1 X162.839 Y85.988 E.03097
G1 X163.289 Y86.868 E.03097
G1 X163.696 Y87.768 E.03098
G1 X164.057 Y88.688 E.03097
G1 X164.371 Y89.624 E.03097
G1 X164.639 Y90.575 E.03098
G1 X164.859 Y91.538 E.03097
G1 X165.03 Y92.511 E.03097
G1 X165.153 Y93.491 E.03098
G1 X165.227 Y94.476 E.03097
G1 X165.251 Y95.464 E.03097
G1 X165.227 Y96.452 E.03097
G1 X165.153 Y97.437 E.03097
G1 X165.03 Y98.417 E.03098
G1 X164.859 Y99.39 E.03097
G1 X164.639 Y100.353 E.03097
G1 X164.371 Y101.304 E.03097
G1 X164.057 Y102.24 E.03098
G1 X163.696 Y103.16 E.03097
G1 X163.289 Y104.06 E.03098
G1 X162.839 Y104.939 E.03097
G1 X162.345 Y105.795 E.03097
G1 X161.809 Y106.625 E.03098
G1 X161.232 Y107.427 E.03097
G1 X160.616 Y108.199 E.03098
G1 X159.963 Y108.94 E.03097
G1 X159.273 Y109.647 E.03098
G1 X158.549 Y110.319 E.03097
G1 X157.792 Y110.954 E.03098
G1 X157.004 Y111.551 E.03097
G1 X156.188 Y112.107 E.03098
G1 X155.345 Y112.622 E.03097
G1 X154.478 Y113.095 E.03097
G1 X153.587 Y113.523 E.03097
G1 X152.677 Y113.907 E.03098
G1 X151.749 Y114.245 E.03097
G1 X150.805 Y114.536 E.03097
G1 X149.847 Y114.78 E.03098
G1 X148.879 Y114.976 E.03097
G1 X147.902 Y115.123 E.03097
G1 X146.919 Y115.221 E.03098
G1 X145.933 Y115.271 E.03097
G1 X144.945 Y115.271 E.03097
G1 X143.958 Y115.221 E.03097
G1 X142.975 Y115.123 E.03098
G1 X141.998 Y114.976 E.03097
G1 X141.03 Y114.78 E.03097
G1 X140.073 Y114.536 E.03098
G1 X139.129 Y114.245 E.03097
G1 X138.2 Y113.907 E.03098
G1 X137.29 Y113.523 E.03097
G1 X136.4 Y113.095 E.03097
G1 X135.532 Y112.622 E.03098
G1 X134.689 Y112.107 E.03097
G1 X133.873 Y111.551 E.03098
G1 X133.086 Y110.954 E.03097
G1 X132.329 Y110.319 E.03098
G1 X131.605 Y109.647 E.03097
G1 X130.915 Y108.94 E.03098
G1 X130.261 Y108.199 E.03097
G1 X129.645 Y107.427 E.03098
G1 X129.069 Y106.625 E.03097
G1 X128.533 Y105.795 E.03098
G1 X128.039 Y104.939 E.03097
G1 X127.588 Y104.06 E.03097
G1 X127.182 Y103.16 E.03098
G1 X126.821 Y102.24 E.03097
G1 X126.506 Y101.304 E.03097
G1 X126.239 Y100.353 E.03098
G1 X126.019 Y99.39 E.03097
G1 X125.847 Y98.417 E.03097
G1 X125.724 Y97.437 E.03098
G1 X125.651 Y96.452 E.03097
G1 X125.626 Y95.464 E.03097
G1 X125.651 Y94.476 E.03097
G1 X125.724 Y93.491 E.03097
G1 X125.847 Y92.511 E.03098
G1 X126.019 Y91.538 E.03097
G1 X126.225 Y90.634 E.02909
G1 X125.873 Y90.482 F9000
;TYPE:External perimeter
G1 F1200
G1 X126.146 Y89.513 E.03157
G1 X126.466 Y88.559 E.03156
G1 X126.834 Y87.622 E.03156
G1 X127.248 Y86.704 E.03157
G1 X127.708 Y85.808 E.03156
G1 X128.211 Y84.936 E.03156
G1 X128.757 Y84.091 E.03157
G1 X129.345 Y83.273 E.03156
G1 X129.972 Y82.486 E.03156
G1 X130.638 Y81.731 E.03156
G1 X131.341 Y81.011 E.03157
G1 X132.079 Y80.326 E.03156
G1 X132.851 Y79.679 E.03157
G1 X133.653 Y79.071 E.03156
G1 X134.485 Y78.504 E.03157
G1 X135.344 Y77.979 E.03156
G1 X136.228 Y77.498 E.03156
G1 X137.135 Y77.061 E.03156
G1 X138.063 Y76.67 E.03156
G1 X139.009 Y76.325 E.03156
G1 X139.97 Y76.029 E.03156
G1 X140.946 Y75.78 E.03157
G1 X141.933 Y75.581 E.03156
G1 X142.928 Y75.431 E.03156
G1 X143.93 Y75.331 E.03156
G1 X144.935 Y75.28 E.03156
G1 X145.942 Y75.28 E.03156
G1 X146.948 Y75.331 E.03156
G1 X147.949 Y75.431 E.03156
G1 X148.945 Y75.581 E.03156
G1 X149.931 Y75.78 E.03156
G1 X150.907 Y76.029 E.03157
G1 X151.869 Y76.325 E.03156
G1 X152.815 Y76.67 E.03156
G1 X153.743 Y77.061 E.03156
G1 X154.65 Y77.498 E.03156
G1 X155.534 Y77.979 E.03156
G1 X156.393 Y78.504 E.03156
G1 X157.224 Y79.071 E.03157
G1 X158.027 Y79.679 E.03156
G1 X158.798 Y80.326 E.03157
G1 X159.536 Y81.011 E.03156
G1 X160.239 Y81.731 E.03157
G1 X160.905 Y82.486 E.03156
G1 X161.533 Y83.273 E.03156
G1 X162.12 Y84.091 E.03156
G1 X162.667 Y84.936 E.03157
G1 X163.17 Y85.808 E.03156
G1 X163.629 Y86.704 E.03156
G1 X164.043 Y87.622 E.03157
G1 X164.411 Y88.559 E.03156
G1 X164.732 Y89.513 E.03156
G1 X165.004 Y90.482 E.03157
G1 X165.228 Y91.463 E.03156
G1 X165.403 Y92.455 E.03157
G1 X165.528 Y93.454 E.03157
G1 X165.604 Y94.458 E.03156
G1 X165.629 Y95.464 E.03156
G1 X165.604 Y96.47 E.03156
G1 X165.528 Y97.474 E.03156
G1 X165.403 Y98.473 E.03157
G1 X165.228 Y99.465 E.03156
G1 X165.004 Y100.446 E.03156
G1 X164.732 Y101.415 E.03156
G1 X164.411 Y102.369 E.03157
G1 X164.043 Y103.306 E.03156
G1 X163.629 Y104.224 E.03156
G1 X163.17 Y105.12 E.03156
G1 X162.667 Y105.992 E.03156
G1 X162.12 Y106.837 E.03157
G1 X161.533 Y107.655 E.03156
G1 X160.905 Y108.442 E.03156
G1 X160.239 Y109.197 E.03156
G1 X159.536 Y109.917 E.03157
G1 X158.798 Y110.602 E.03156
G1 X158.027 Y111.249 E.03156
G1 X157.224 Y111.857 E.03156
G1 X156.393 Y112.424 E.03157
G1 X155.534 Y112.949 E.03156
G1 X154.65 Y113.43 E.03156
G1 X153.743 Y113.867 E.03156
G1 X152.815 Y114.258 E.03156
G1 X151.869 Y114.603 E.03156
G1 X150.907 Y114.899 E.03156
G1 X149.931 Y115.148 E.03157
G1 X148.945 Y115.347 E.03156
G1 X147.949 Y115.497 E.03156
G1 X146.948 Y115.597 E.03156
G1 X145.942 Y115.648 E.03156
G1 X144.935 Y115.648 E.03156
G1 X143.93 Y115.597 E.03156
G1 X142.928 Y115.497 E.03156
G1 X141.933 Y115.347 E.03156
G1 X140.946 Y115.148 E.03156
G1 X139.971 Y114.899 E.03156
G1 X139.009 Y114.603 E.03156
G1 X138.063 Y114.258 E.03156
G1 X137.135 Y113.867 E.03156
G1 X136.228 Y113.43 E.03156
G1 X135.344 Y112.949 E.03156
G1 X134.485 Y112.424 E.03156
G1 X133.653 Y111.857 E.03157
G1 X132.851 Y111.249 E.03156
G1 X132.079 Y110.602 E.03157
G1 X131.341 Y109.917 E.03156
G1 X130.638 Y109.197 E.03157
G1 X129.972 Y108.442 E.03156
G1 X129.345 Y107.655 E.03156
G1 X128.757 Y106.837 E.03156
G1 X128.211 Y105.992 E.03157
G1 X127.708 Y105.12 E.03156
G1 X127.248 Y104.224 E.03156
G1 X126.834 Y103.306 E.03157
G1 X126.466 Y102.369 E.03156
G1 X126.146 Y101.415 E.03156
G1 X125.873 Y100.446 E.03156
G1 X125.649 Y99.465 E.03156
G1 X125.474 Y98.473 E.03156
G1 X125.349 Y97.474 E.03157
G1 X125.274 Y96.47 E.03156
G1 X125.249 Y95.464 E.03156
G1 X125.274 Y94.458 E.03156
G1 X125.349 Y93.454 E.03156
G1 X125.474 Y92.455 E.03157
G1 X125.649 Y91.463 E.03156
G1 X125.86 Y90.54 E.02968
G1 X126.258 Y90.374 F9000
G1 E-4.2 F3600
;WIPE_START
G1 F7200
G1 X126.146 Y89.513 E-.50667
G1 X126.466 Y88.559 E-.47817
G1 X126.834 Y87.622 E-.47817
G1 X127.048 Y87.148 E-.24699
;WIPE_END
G1 E-.09 F3600
G1 X157.439 Y79.848 F9000
G1 E6 F2400
;TYPE:Solid infill
;WIDTH:0.42209
G1 F1200
G1 X159.755 Y82.18 E.10363
G1 X160.399 Y82.91 E.0307
G1 X161.007 Y83.672 E.0307
G1 X161.681 Y84.627 E.03688
G1 X156.28 Y79.226 E.24084
G1 X155.204 Y78.551 E.04006
G1 X154.907 Y78.389 E.01064
G1 X162.52 Y86.002 E.33943
G1 X163.086 Y87.104 E.03906
G1 X153.805 Y77.823 E.41381
G1 X152.843 Y77.398 E.03315
G1 X163.507 Y88.061 E.47547
G1 X163.84 Y88.931 E.02934
G1 X151.976 Y77.067 E.52899
G1 X151.175 Y76.802 E.02659
G1 X164.109 Y89.736 E.57669
G1 X164.319 Y90.482 E.02444
G1 X150.423 Y76.586 E.61956
G1 X149.709 Y76.409 E.0232
G1 X164.489 Y91.188 E.65898
G1 X164.629 Y91.865 E.02179
G1 X149.037 Y76.273 E.6952
G1 X148.393 Y76.165 E.02058
G1 X164.744 Y92.516 E.72903
G1 X164.823 Y93.131 E.01956
G1 X147.768 Y76.076 E.76044
G1 X147.172 Y76.016 E.01888
G1 X164.887 Y93.732 E.78989
G1 X164.931 Y94.311 E.01833
G1 X146.593 Y75.974 E.81764
G1 X146.029 Y75.945 E.01782
G1 X164.954 Y94.87 E.84382
G1 X164.967 Y95.42 E.01734
G1 X145.487 Y75.94 E.86857
G1 X144.951 Y75.94 E.0169
G1 X164.957 Y95.946 E.89199
G1 X164.942 Y96.467 E.01646
G1 X144.44 Y75.966 E.91412
G1 X143.932 Y75.993 E.01606
G1 X164.905 Y96.966 E.93512
G1 X164.865 Y97.463 E.0157
G1 X143.444 Y76.042 E.95508
G1 X142.959 Y76.093 E.01538
G1 X164.805 Y97.939 E.97404
G1 X164.744 Y98.414 E.01509
G1 X142.493 Y76.164 E.99208
G1 X142.028 Y76.235 E.01484
G1 X164.663 Y98.87 E1.00924
G1 X164.583 Y99.326 E.01459
G1 X141.582 Y76.325 E1.02554
G1 X141.136 Y76.415 E.01435
G1 X164.483 Y99.762 E1.041
G1 X164.384 Y100.199 E.01412
G1 X140.707 Y76.522 E1.0557
G1 X140.28 Y76.631 E.01391
G1 X164.27 Y100.621 E1.06966
G1 X164.152 Y101.039 E.01371
G1 X139.864 Y76.752 E1.08292
G1 X139.455 Y76.878 E.01352
G1 X164.024 Y101.448 E1.09551
G1 X163.89 Y101.85 E.01335
G1 X139.052 Y77.012 E1.10745
G1 X138.659 Y77.155 E.01319
G1 X163.75 Y102.247 E1.11877
G1 X163.599 Y102.632 E.01304
G1 X138.267 Y77.3 E1.1295
G1 X137.89 Y77.459 E.01291
G1 X163.448 Y103.017 E1.13958
G1 X163.283 Y103.388 E.0128
G1 X137.513 Y77.618 E1.14902
G1 X137.146 Y77.788 E.01273
G1 X163.116 Y103.757 E1.15792
G1 X162.942 Y104.119 E.01266
G1 X136.784 Y77.962 E1.16628
G1 X136.427 Y78.141 E.0126
G1 X162.76 Y104.473 E1.17412
G1 X162.577 Y104.827 E.01255
G1 X136.08 Y78.33 E1.18145
G1 X135.733 Y78.519 E.01246
G1 X162.381 Y105.167 E1.18818
G1 X162.185 Y105.507 E.01238
G1 X135.397 Y78.72 E1.19438
G1 X135.064 Y78.923 E.0123
G1 X161.98 Y105.839 E1.2001
G1 X161.77 Y106.164 E.01223
G1 X134.736 Y79.131 E1.20534
G1 X134.417 Y79.349 E.01217
G1 X161.558 Y106.489 E1.21013
G1 X161.334 Y106.801 E.01211
G1 X134.099 Y79.566 E1.21435
G1 X133.791 Y79.794 E.01208
G1 X161.11 Y107.113 E1.21807
G1 X160.878 Y107.418 E.01206
G1 X133.486 Y80.026 E1.22134
G1 X133.184 Y80.26 E.01205
G1 X160.64 Y107.716 E1.22418
G1 X160.402 Y108.014 E.01203
G1 X132.893 Y80.505 E1.22657
G1 X132.601 Y80.75 E.012
G1 X160.151 Y108.299 E1.22837
G1 X159.899 Y108.584 E.01198
G1 X132.319 Y81.004 E1.22974
G1 X132.041 Y81.262 E.01196
G1 X159.642 Y108.863 E1.23068
G1 X159.378 Y109.135 E.01196
G1 X131.765 Y81.522 E1.23119
G1 X131.5 Y81.793 E.01196
G1 X159.113 Y109.406 E1.23119
G1 X159.075 Y109.445 E.0017
G1 X158.837 Y109.666 E.01026
G1 X131.235 Y82.065 E1.23068
G1 X130.978 Y82.344 E.01196
G1 X158.558 Y109.924 E1.22974
G1 X158.276 Y110.178 E.01197
G1 X130.727 Y82.629 E1.22837
G1 X130.475 Y82.914 E.01198
G1 X157.985 Y110.423 E1.22657
G1 X157.693 Y110.668 E.012
G1 X130.238 Y83.212 E1.22418
G1 X130 Y83.51 E.01203
G1 X157.392 Y110.902 E1.22134
G1 X157.087 Y111.134 E.01207
G1 X129.768 Y83.815 E1.21807
G1 X129.544 Y84.127 E.01211
G1 X156.779 Y111.362 E1.21435
G1 X156.46 Y111.579 E.01217
G1 X129.319 Y84.439 E1.21013
G1 X129.108 Y84.764 E.01222
G1 X156.141 Y111.797 E1.20534
G1 X155.813 Y112.005 E.01225
G1 X128.898 Y85.089 E1.2001
G1 X128.693 Y85.421 E.01229
G1 X155.48 Y112.208 E1.19438
G1 X155.145 Y112.409 E.01232
G1 X128.497 Y85.761 E1.18818
G1 X128.3 Y86.101 E.01238
G1 X154.798 Y112.598 E1.18145
G1 X154.451 Y112.787 E.01246
G1 X128.118 Y86.454 E1.17412
G1 X127.936 Y86.809 E.01256
G1 X154.093 Y112.966 E1.16628
G1 X153.731 Y113.14 E.01267
G1 X127.762 Y87.171 E1.15792
G1 X127.595 Y87.54 E.01278
G1 X153.365 Y113.31 E1.14902
G1 X152.988 Y113.469 E.01291
G1 X127.429 Y87.911 E1.13958
G1 X127.278 Y88.296 E.01304
G1 X152.61 Y113.628 E1.1295
G1 X152.219 Y113.773 E.01316
G1 X127.127 Y88.681 E1.11877
G1 X126.988 Y89.078 E.01326
G1 X151.826 Y113.916 E1.10745
G1 X151.423 Y114.05 E.01338
G1 X126.853 Y89.48 E1.09551
G1 X126.726 Y89.888 E.0135
G1 X151.013 Y114.176 E1.08292
G1 X150.598 Y114.297 E.01363
G1 X126.608 Y90.307 E1.06966
G1 X126.494 Y90.729 E.01378
G1 X150.171 Y114.406 E1.0557
G1 X149.741 Y114.513 E.01395
G1 X126.394 Y91.165 E1.041
G1 X126.295 Y91.602 E.01413
G1 X149.295 Y114.603 E1.02554
G1 X148.849 Y114.693 E.01435
G1 X126.214 Y92.058 E1.00924
G1 X126.134 Y92.514 E.01459
G1 X148.384 Y114.764 E.99208
G1 X147.918 Y114.835 E.01486
G1 X126.072 Y92.989 E.97404
G1 X126.013 Y93.465 E.01514
G1 X147.433 Y114.886 E.95508
G1 X146.946 Y114.934 E.01545
G1 X125.973 Y93.962 E.93512
G1 X125.935 Y94.461 E.01577
G1 X146.437 Y114.962 E.91412
G1 X145.926 Y114.988 E.01612
G1 X125.921 Y94.982 E.89199
G1 X125.91 Y95.508 E.01657
G1 X145.39 Y114.988 E.86857
G1 X144.849 Y114.983 E.01707
